X: 23082
T: Laughing Molly
R: jig
M: 6/8
K: Adorian
|:edB ~A3|cGB ~A3|GED ~A3|cAB ~e3|
edB ~A3|cGB ~A3|GED EGF|GBd ~e3:|
|:edB EAA|GAF EAA|~G3 EAA|GBd ~e3|
edB EAA|GAF EAA|~G3 EAA|GBd e2d:|

